X: 22901
T: Larkin's Beehive
R: reel
M: 4/4
K: Gmajor
|:BGBd edge|dzBG AGE2|BG(3B/c/d edge|dBAc BGGz|
BGBd edge|dzBG AGEd|BBGB ABGB|dBAc BGGz:|
|:BGBd eg~g2|e~a2f gedB|GBdB eBdB|ABGB AzGA|
BGBd eg~g2|e~a2f gedc|BzGB ABGB|dBAc BGGz:|

